!!!COM: Palestrina, Giovanni Perluigi da
!!!OPR: Missa Laudate Dominum
!!!OMD: Credo
!!!OTL: Et ascendit
**kern	**kern	**kern	**kern
*Ibass	*Itenor	*Icalto	*Icalto
!Bassus	!Tenor	!Altus 2	!Altus 1
*clefF4	*clefGv2	*clefG2	*clefG2
*k[b-]	*k[b-]	*k[b-]	*k[b-]
*F:ion	*F:ion	*F:ion	*F:ion
*M4/2	*M4/2	*M4/2	*M4/2
=103	=103	=103	=103
1FF	2.F	2A	1c
.	.	1c	.
.	4E	.	.
[1F	1D	.	2r
.	.	2B-	2F
=104	=104	=104	=104
2F]	1C	1c	1G
2E	.	.	.
2F	1r	2d	2A
2G	.	2e	2B-
=105	=105	=105	=105
2A	0r	2.f	2c
2.B-	.	.	2.d
.	.	4e	.
.	.	4d	.
4A	.	4c	4e
4A	.	4c	[2f
8G	.	8B-	.
8F	.	8A	.
=106	=106	=106	=106
1G	2r	1B-	2f]
.	1B-	.	2e
1F	.	1c	[1f
.	2A	.	.
=107	=107	=107	=107
1r	2B-	2d	2f]
.	2c	2e	2e
2r	2d	2f	2d
2C	[2e-	[2g	[2c
=108	=108	=108	=108
1G	4e-]	2g]	4c]
.	4d	.	4B-
.	4d	2d	1B-
.	8c	.	.
.	8B-	.	.
1F	1c	1f	.
.	.	.	2A
=109	=109	=109	=109
1r	1B-	1f	1d
1BB-	2r	2r	2r
.	2B-	2f	2d
=110	=110	=110	=110
2BB-	2B-	2f	2d
2BB-	2B-	2f	2d
[1BB-	[1B-	[1f	[1d
=111	=111	=111	=111
2BB-]	2B-]	2f]	2d]
2F	2A	2f	2c
1F	1A	1f	2c
.	.	.	[2d
=112	=112	=112	=112
0G	0B	0d	1d]
.	.	.	1G
=113	=113	=113	=113
1C	1c	0e	2r
.	.	.	2G
2r	2r	.	2.c
2C	2G	.	.
.	.	.	4c
=114	=114	=114	=114
2F	2.A	0r	2c
2F	.	.	4F
.	4B-	.	4G
2F	2c	.	4A
.	.	.	4B-
2FF	2A	.	4c
.	.	.	4d
=115	=115	=115	=115
2C	2G	2r	2e
2D	2F	2A	1f
1C	1G	2.c	.
.	.	.	2e
.	.	4c	.
=116	=116	=116	=116
0r	2F	2c	1.f
.	4D	4F	.
.	4E	4G	.
.	4F	4A	.
.	4G	4B-	.
.	[2A	4c	4e
.	.	4d	4d
=117	=117	=117	=117
1r	2A]	2e	1c
.	2F	1f	.
1C	2G	.	2r
.	2G	2e	2c
=118	=118	=118	=118
2.F	2.A	2f	2.c
.	.	2c	.
4F	4A	.	4c
2F	2A	2.f	2c
4BB-	[2B-	.	[2d
4C	.	4f	.
=119	=119	=119	=119
4D	2B-]	1f	2d]
4E	.	.	.
1F	4A	.	4c
.	4G	.	4B-
.	2A	2.f	2c
2D	2B-	.	2F
.	.	4d	.
=120	=120	=120	=120
1C	1c	1e-	1G
[1BB-	1F	1d	2B-
.	.	.	4B-
.	.	.	4c
=121	=121	=121	=121
1BB-]	2r	4B-	4d
.	.	4c	4e
.	4B-	4d	2f
.	4c	4e	.
2r	4d	1f	[1B-
.	4e-	.	.
4BB-	2d	.	.
4C	.	.	.
=122	=122	=122	=122
4D	2d	1f	2B-]
4E	.	.	.
2F	2c	.	2A
2BB-	1B-	1f	2.d
2BB-	.	.	.
.	.	.	4c
=123	=123	=123	=123
1.BB-	1.F	1.d	1.B-
2FF	2F	2c	2A
=124	=124	=124	=124
0FF	2.F	1c	1A
.	4G	.	.
.	1A	2r	1c
.	.	2c	.
=125	=125	=125	=125
1r	1r	2d	2B-
.	.	1f	2.A
1C	2r	.	.
.	.	.	8G
.	.	.	8F
.	2c	2e	2G
=126	=126	=126	=126
2D	2B-	1d	1F
1F	2.A	.	.
.	.	1c	2r
.	8G	.	.
.	8F	.	.
2E	2G	.	2c
=127	=127	=127	=127
1D	1F	2B-	2d
.	.	1A	1f
2.C	1r	.	.
.	.	[2G	2e
4BB-	.	.	.
=128	=128	=128	=128
2AA	2r	4G]	2c
.	.	4F	.
2BB-	2F	1F	1d
1GG	2G	.	.
.	[2B-	2E	4c
.	.	.	4B-
=129	=129	=129	=129
1FF	2B-]	1F	2d
.	2A	.	2c
1r	1G	2r	1B-
.	.	2G	.
=130	=130	=130	=130
2r	2F	2A	1c
2C	2E	1c	.
2D	1D	.	1r
[2F	.	2B-	.
=131	=131	=131	=131
2F]	1C	2A	2r
2E	.	2G	2c
1D	2r	2F	2d
.	2F	[2A	[2f
=132	=132	=132	=132
1C	1G	4A]	2f]
.	.	4G	.
.	.	1G	2e
1D	2B-	.	1d
.	2A	2F	.
=133	=133	=133	=133
0BB-	2G	1B-	2.d
.	2F	.	.
.	.	.	4c
.	4D	2d	2B-
.	4E	.	.
.	4F	2d	2A
.	4D	.	.
=134	=134	=134	=134
0C	2E	1c	2G
.	1F	.	2F
.	.	1c	1G
.	2E	.	.
=135	=135	=135	=135
0FF	0F	0c	0A
*-	*-	*-	*-
!!!CDT: 1525/^1526/-1594/2/2
!!!OCY: Italia
!!!AGN: Mass (Parody)
!!!AST: renaissance, vocal
!!!ASW: Motet 1572 (Palestrina)
!!!PWK: Masses, Book 8vce
!!!RNB: Cadence finals: C
!!!YOR: Le Opere Complete, v. 30, p. 1
!!!YOO: Rome, Italy: Fratelli Scalera
!!!END: 1992//
!!!EED: John Miller
!!!YEC: Copyright 2000, John Miller
!!!YEN: United States of America
!!!YEM: Rights to all derivative electronic formats reserved.
!!!YEM: Refer to licensing agreement for further details.
!!!YEM: This file must be accompanied by the licensing agreement.
!!!YEM: A copy of the licensing agreement may be found at http://www.music-cog.ohio-state.edu/HumdrumDatabases/Palestrina/license.txt
!!!EMD: converted to Humdrum by Bret Aarden
